dist/svgs/crypto-icons/icons/adx.svg

<?xml version="1.0" encoding="UTF-8" standalone="yes"?>
<svg xmlns="http://www.w3.org/2000/svg" xmlns:xlink="http://www.w3.org/1999/xlink" width="316px" height="509.3333333333333px" viewBox="0 0 237 382" version="1.1">
  <g id="surface1">
    <path style=" stroke:none;fill-rule:nonzero;fill:rgb(0%,0%,0%);fill-opacity:1;" d="M 118.5 0 C 141.578125 22.804688 164.628906 45.628906 187.660156 68.472656 C 175.5 80.535156 163.328125 92.585938 151.140625 104.628906 C 140.230469 93.761719 129.40625 82.824219 118.5 71.96875 C 107.605469 82.832031 96.777344 93.757812 85.871094 104.628906 C 73.6875 92.582031 61.511719 80.53125 49.339844 68.472656 C 72.363281 45.621094 95.417969 22.796875 118.5 0 Z M 49.351562 313.429688 C 61.601562 301.480469 73.671875 289.363281 85.871094 277.371094 C 96.761719 288.238281 107.605469 299.160156 118.5 310.03125 C 129.410156 299.167969 140.246094 288.242188 151.152344 277.371094 L 187.671875 313.511719 C 164.65625 336.386719 141.601562 359.214844 118.5 382 C 95.46875 359.136719 72.273438 336.414062 49.351562 313.429688 Z M 49.351562 313.429688 "/>
    <path style=" stroke:none;fill-rule:nonzero;fill:rgb(0%,0%,0%);fill-opacity:1;" d="M 0 117.175781 C 14.710938 102.574219 29.445312 87.992188 44.203125 73.4375 C 69.007812 97.886719 93.769531 122.382812 118.5 146.925781 C 143.300781 122.464844 168.0625 97.96875 192.796875 73.4375 C 207.5625 87.972656 222.296875 102.539062 237 117.140625 L 237 117.484375 C 212.367188 142.011719 187.671875 166.476562 162.914062 190.878906 C 187.59375 215.378906 212.289062 239.859375 237 264.320312 L 237 264.597656 C 222.304688 279.246094 207.566406 293.855469 192.796875 308.425781 C 167.957031 283.980469 143.324219 259.339844 118.515625 234.878906 C 93.679688 259.328125 69.058594 283.988281 44.222656 308.425781 C 29.441406 293.859375 14.699219 279.253906 0 264.609375 L 0 264.355469 C 24.667969 239.835938 49.363281 215.34375 74.085938 190.878906 C 49.398438 166.402344 24.703125 141.9375 0 117.472656 Z M 0 117.175781 "/>
  </g>
</svg>

<svg xmlns="http://www.w3.org/2000/svg" viewBox="0 0 237 382"><path d="M118.5 0a51980.583 51980.583 0 0169.16 68.473 26580.976 26580.976 0 01-36.52 36.156c-10.91-10.867-21.734-21.805-32.64-32.66-10.895 10.863-21.723 21.789-32.629 32.66A53134.92 53134.92 0 0149.34 68.473 39422.293 39422.293 0 01118.5 0zM49.352 313.43c12.25-11.95 24.32-24.067 36.52-36.059 10.89 10.867 21.733 21.79 32.628 32.66 10.91-10.863 21.746-21.789 32.652-32.66l36.52 36.14A25408.373 25408.373 0 01118.5 382c-23.031-22.863-46.227-45.586-69.148-68.57zm0 0"/><path d="M0 117.176a19444.752 19444.752 0 0144.203-43.739 30629.677 30629.677 0 0174.297 73.489 37847.34 37847.34 0 0074.297-73.488c14.766 14.535 29.5 29.101 44.203 43.703v.343a20507.185 20507.185 0 01-74.086 73.395c24.68 24.5 49.375 48.98 74.086 73.441v.278a11988.763 11988.763 0 01-44.203 43.828c-24.84-24.446-49.473-49.086-74.281-73.547-24.836 24.45-49.457 49.11-74.293 73.547A11408.667 11408.667 0 010 264.609v-.254a46925.505 46925.505 0 0174.086-73.476A187653.007 187653.007 0 000 117.473zm0 0"/></svg>
